src/assets/back-btn.svg

<svg width="12" height="21" viewBox="0 0 12 21" fill="none" xmlns="http://www.w3.org/2000/svg">
<path d="M0.00901032 10.6884C0.051398 11.1014 0.228471 11.4919 0.515929 11.8063L8.19978 20.2471C8.37872 20.4573 8.60071 20.6315 8.85258 20.7594C9.10444 20.8872 9.38103 20.966 9.6659 20.9912C9.95077 21.0164 10.2381 20.9874 10.5108 20.9059C10.7836 20.8245 11.0361 20.6922 11.2535 20.517C11.4708 20.3418 11.6486 20.1273 11.7761 19.8861C11.9037 19.645 11.9785 19.3821 11.996 19.1132C12.0135 18.8443 11.9735 18.5749 11.8782 18.3208C11.7829 18.0668 11.6344 17.8334 11.4414 17.6345L4.9448 10.5L11.4414 3.36551C11.6344 3.16661 11.7829 2.9332 11.8782 2.67917C11.9735 2.42513 12.0135 2.15566 11.996 1.88676C11.9785 1.61786 11.9037 1.35502 11.7761 1.11387C11.6486 0.872717 11.4708 0.65817 11.2535 0.482982C11.0361 0.307794 10.7836 0.175541 10.5108 0.0940811C10.2381 0.0126214 9.95077 -0.016381 9.6659 0.00879724C9.38103 0.0339755 9.10444 0.11282 8.85258 0.240646C8.60071 0.368472 8.37872 0.54267 8.19978 0.752886L0.515929 9.19368C0.329298 9.39809 0.188251 9.63576 0.101166 9.89255C0.0140796 10.1493 -0.017266 10.42 0.00901032 10.6884V10.6884Z" fill="white"/>
</svg>

<svg width="12" height="21" viewBox="0 0 12 21" fill="none" xmlns="http://www.w3.org/2000/svg"><path d="M.009 10.688c.042.413.22.804.507 1.118L8.2 20.247c.179.21.4.384.653.512a2.259 2.259 0 0 0 1.658.146c.273-.08.525-.213.742-.388.218-.175.396-.39.523-.63a1.902 1.902 0 0 0 .102-1.565 1.99 1.99 0 0 0-.437-.688L4.945 10.5l6.496-7.134a1.99 1.99 0 0 0 .437-.687 1.902 1.902 0 0 0-.102-1.565 2.032 2.032 0 0 0-.522-.631 2.175 2.175 0 0 0-.743-.389 2.26 2.26 0 0 0-1.658.147A2.11 2.11 0 0 0 8.2.753L.516 9.193a1.98 1.98 0 0 0-.415.7 1.899 1.899 0 0 0-.092.795z" fill="#fff"/></svg>
